!!!!SEGMENT: pl-wumfc--n50556_moniuszko-stanislaw--wrozba-znachora-o-kozacze.krn
!!!cenid: 18xx:4086
!!!COM: Moniuszko, Stanisław
!!!COM-rismID: pe30008351
!!!CDT: 1819/05/05-1872/06/04
!!!CNT: Polish
!!!OTL: Wróżba znachora/O kozacze
!!!PDT:
!!!AGN:
!!!SMS-siglum: PL-Wumfc
!!!SMS-shelfmark: N50556
!!!SMS-shelfwork: W
!!!SMS-variant:
!!!SMS-altvar:
!!!NIFC-rismSourceID: 1001132735
!!!NIFC-rismChildID: 1001132735
!!!NIFC-islandoraID: pl-wumfc:6864
!!!URL-pdf-islandora: https://repozytorium.nifc.pl/islandora/object/pl-wumfc%3A6864/datastream/PDF/view
!!!URL-scan: https://polish.musicsources.pl/pl/lokalizacje/galeria/druki-muzyczne/12574 @EN{Scan on Polish Music Sources Website} @PL{Skany w portalu Dziedzictwo Muzyki Polskiej w otwartym dostępie}
!!!IIIF:
!!!ONB-nifc:
!!!AIN: 1 piano 1 soprn
!!!key: A-
**kern	**kern	**dynam	**kern	**text	**text	**dynam
*part2	*part2	*part2	*part1	*part1	*part1	*part1
*staff3	*staff2	*	*staff1	*staff1	*staff1	*
*I"Fortepian.	*I"Fortepian.	*	*I"Śpiew.	*	*	*
*>[A,B,B,C]	*>[A,B,B,C]	*	*>[A,B,B,C]	*	*	*
*>A	*>A	*	*>A	*	*	*
*Ipiano	*Ipiano	*	*Isoprn	*	*	*
*ICklav	*ICklav	*	*ICvox	*	*	*
*IGacmp	*IGacmp	*	*IGsolo	*	*	*
*clefF4	*clefG2	*	*clefG2	*	*	*
*k[b-e-a-d-]	*k[b-e-a-d-]	*	*k[b-e-a-d-]	*	*	*
*A-:	*A-:	*	*A-:	*	*	*
*M3/4	*M3/4	*	*M3/4	*	*	*
=1	=1	=1	=1	=1	=1	=1
!!LO:TX:B:a:t=Moderato.
2.r	8.e-^/L	f	2.r	.	.	.
.	16e-'/Jk	.	.	.	.	.
.	8e-^/	.	.	.	.	.
.	8r	.	.	.	.	.
.	8e- 8dn^/	.	.	.	.	.
.	8r	.	.	.	.	.
=2	=2	=2	=2	=2	=2	=2
2.r	8e- 8d-X^/	.	2.r	.	.	.
.	8r	.	.	.	.	.
.	8e- 8d- 8B-^/	.	.	.	.	.
.	8r	.	.	.	.	.
.	8e- 8d- 8B- 8G^/	.	.	.	.	.
.	8r	.	.	.	.	.
=3!|:	=3!|:	=3!|:	=3!|:	=3!|:	=3!|:	=3!|:
*>B	*>B	*	*>B	*	*	*
*ped	*	*	*	*	*	*
4r	8.r	.	8.e-/	O	Trze-	.
.	(16a-/	mf	16a-/	ko-	-ba	.
8E- 8AA-/	8c 8A-'/)	.	4c/	-za-	w czar-	.
8r	8r	.	.	.	.	.
[4E- [4AA-/	(4d- 4B-^/	.	4d-/	-cze,	-ną	.
!!LO:LB:g=original
=4	=4	=4	=4	=4	=4	=4
.	8qf/	.	.	.	.	.
*	*^	*	*	*	*	*
8E-] 8AA-/]	8.e-/L)	4.B-\	.	8.e-/	mój	noc	.
8r	.	.	.	.	.	.	.
.	16dn/Jk	.	.	16dn/	ko-	się	.
8E- 8AA-/	8e- 8c'</	.	.	4e-/	-za-	ro-	.
8r	8r	8ryy	.	.	.	.	.
[4E- [4AA-/	(>4a- [4c^/	4ryy	.	4a-/	-cze	-dzie	.
=5	=5	=5	=5	=5	=5	=5	=5
8E-] 8AA-/]	8cc 8c/])	2ryy	.	8cc\	nie	du-	.
8r	8r	.	.	8g/	w ros-	-żo!	.
8E- 8AA-/	8e- 8c/	.	.	8b-/	-ko-	du-	.
8r	8r	.	.	8a-/	-szach	-żo	.
4A- 4E- 4AA-\	(<8e-/L	4c\	.	8e-/	spié-	świa-	.
*Xped	*	*	*	*	*	*	*
.	8a-/J)	.	.	8f/	-wak	-ta	.
*	*v	*v	*	*	*	*	*
=6	=6	=6	=6	=6	=6	=6
(<4B- 4E-'\	(>4g 4d- 4G'>/	.	(4g/	ży-	scho-	.
4B- 4F 4BB-'\	4f 4d- 4A-'>/	.	4f/)	.	.	.
8B- 8E-'\)	8e- 8d- 8G'>/)	.	8e-/	-je,	-dzie,	.
8r	8r	.	8r	.	.	.
=7	=7	=7	=7	=7	=7	=7
*ped	*	*	*	*	*	*
4r	8.r	.	8.e-/	i	czar-	.
.	(16a-/	.	16a-/	nie	-nę	.
8E- 8AA-/	8c 8A-'/)	.	4c/	słod-	łzą	.
8r	8r	.	.	.	.	.
[4E- [4AA-/	4d- [4B-/	.	4d-/	-kie	swą	.
!!LO:LB:g=original
=8	=8	=8	=8	=8	=8	=8
.	(16qqe-/LL)	.	.	.	.	.
.	16qqf/JJ)	.	.	.	.	.
8E-] 8AA-/]	8.e-L 8.B-/]	.	8.e-/	ma	do-	.
8r	.	.	.	.	.	.
.	16dn/Jk	.	16dn/	ko-	-lę	.
8E- 8AA-/	8e- 8c/	.	4e-/	-ła-	zro-	.
8r	8r	.	.	.	.	.
[4E-^\	(4a- (4c/	.	4a-/	-cze	-sić,	.
=9	=9	=9	=9	=9	=9	=9
*	*^	*	*	*	*	*
8E-\]	8cc 8c/))	2ryy	.	8cc\	i	dłu-	.
*Xped	*	*	*	*	*	*	*
8r	8r	.	.	8a-/	nie	-go	.
*ped	*	*	*	*	*	*	*
8EE-/	8e- 8d- 8G/	.	.	8g/	słod-	ziar-	.
8r	8r	.	.	8f/	-ki	-no	.
(4B- 4E-\	8b-/L	(4d-\	.	8g/	na-	dum	.
.	8e-/J	.	.	8e-/	-poj	wy-	.
*	*v	*v	*	*	*	*	*
=10	=10	=10	=10	=10	=10	=10
*Xped	*	*	*	*	*	*
4A-\)	4a- 4c/)	.	4a-/	pi-	-no-	.
(<4A- 4D-'\	(>4a- 4f 4d- 4A-'>/	.	4a-/	-je.	-sić.	.
4A- 4AA-'\)	4a- 4e- 4c 4A-'>/)	.	4r	.	.	.
=11	=11	=11	=11	=11	=11	=11
4r	4r	.	8.g/	Że-	Trze-	.
.	.	.	16a-/	-by	-ba	.
!	!	!	!	!	!	!LO:HP:a:t=cre-scen-do:ext2=cd
4c 4G 4C'\	(>4g 4en 4B-/	.	4g/	dum-	mi-	<
4c 4F^\	4f 4A-/)	.	4f/	-kę	-łość	.
!!LO:PB:g=original
=12	=12	=12	=12	=12	=12	=12
8.G\L	8.e-X/L	.	8.e-/	w du-	mieć	.
16A-\Jk	16f/Jk	.	16f/	-szy	ro-	.
!	!	!LO:HP:b:t=cre-scen-do:ext2=cd	!	!	!	!
(4G\	4g 4e- 4B-/	<	4g/	zro-	-dzi-	.
4F\)	4a- 4dn 4B-/	.	4a-/	-dzić,	-ny,	.
=13	=13	=13	=13	=13	=13	=13
8.r	8.b-\L	.	8.b-\	że-	i	.
16E-\	16cc\Jk	.	16cc\	-by	dru-	.
(4e-\	(4b- 4g 4d-X/	.	4b-\	z to-	-ży-	.
8E-\)	8a- 8c/)	.	4a-/	-nem	-ny,	.
8r	8r	.	.	.	.	.
=14	=14	=14	=14	=14	=14	=14
8.B-\L	8.g/L	.	8.g/	ją	i	.
16c\Jk	16a-/Jk	.	16a-/	po-	dziew-	.
(4B-\	(4b- 4g 4d-/	.	4b-\	-go-	-czy-	[[
4A-\)	4cc 4f 4d-/)	[[	4cc\	-dzić,	-ny	.
=15	=15	=15	=15	=15	=15	=15
!	!	!	!	!	!	!LO:DY:a
(8.f-XL 8.B- 8.G\	8dd-L 8b- 8d-^/	f	8.dd-\	że-	i	f
.	16r	.	.	.	.	.
16e-Jk 16B- 16G\)	16dd-Jk 16b- 16d-/	.	16dd-\	-by	wy-	.
2e- 2B- 2G;\	2dd- 2b- 2d-^;/	.	4.dd-^;\	zgo-	-mod-	.
.	.	.	8e-/	-dzić,	-lić	.
!!LO:LB:g=original
=16	=16	=16	=16	=16	=16	=16
8.A-L 8.E- 8.BB- 8.AA-\	8.fL 8.d- 8.B-^/	.	8.dd-\	z ser-	ży-	.
16GJk 16E- 16BB- 16GG\	16e-Jk 16d- 16B-/	.	16dd-\	-cem	-ciem	.
!	!	!	!	!	!	!LO:DY:a
2G 2E- 2BB- 2GG;\	2e- 2d- 2B-^;/	.	4.dd-;\	lu-	trze-	>
.	.	.	8e-/	-du,	-ba,	]
=17	=17	=17	=17	=17	=17	=17
!	!	!	!	!	!	!LO:DY:a
4r	4r	.	8e-/	trze-	wo-	p
.	.	.	8e-/	-ba	-lę	.
(4A-:: 4E-:: 4C:: 4AA-::\	(4cc:: 4e-:: 4c::/	p	4cc\	tru-	nie-	.
8G 8E- 8BB- 8GG\)	8b- 8e- 8B-/)	.	8b-\	-du!	-ba,	.
8r	8r	.	8r	.	.	.
=18	=18	=18	=18	=18	=18	=18
4r	4r	.	8B-/	trze-	łas-	.
.	.	.	8B-/	-ba	-kę	.
(4F:: 4BB-:: 4FF::/	(4a-:: 4dn:: 4A-::/	.	4a-/	cu-	nie-	.
8E- 8BB- 8EE-/)	8g 8e- 8G/)	.	8g/	-du!	-ba.......	.
8r	8r	.	8r	.	.	.
=19	=19	=19	=19	=19	=19	=19
2.r	8.e-^/L	f	2.r	.	.	.
.	16e-/Jk	.	.	.	.	.
.	8e-^/	.	.	.	.	.
.	8r	.	.	.	.	.
.	8e- 8dn^/	.	.	.	.	.
.	8r	.	.	.	.	.
=20	=20	=20	=20	=20	=20	=20
2.r	8e- 8d-X^/	.	2.r	.	.	.
.	8r	.	.	.	.	.
.	8e- 8d- 8B-^/	.	.	.	.	.
.	8r	.	.	.	.	.
.	8e- 8d- 8B- 8G^/	.	.	.	.	.
.	8r	.	.	.	.	.
!!LO:LB:g=original
=21:|!	=21:|!	=21:|!	=21:|!	=21:|!	=21:|!	=21:|!
*>C	*>C	*	*>C	*	*	*
*ped	*	*	*	*	*	*
4r	8.e-/L	.	8.e-/	W ten-	.	.
.	(16a-/Jk	.	16a-/	-czas	.	.
8E- 8AA-/	8c 8A-/)	.	4c/	tyl-	.	.
8r	8r	.	.	.	.	.
[4E- [4AA-/	(4d- [4B-^/	.	4d-/	-ko	.	.
=22	=22	=22	=22	=22	=22	=22
.	(8qf/	.	.	.	.	.
8E-] 8AA-/]	8.e-L 8.B-/)]	.	8.e-/	śpie-	.	.
8r	.	.	.	.	.	.
.	16dn/Jk	.	16dn/	-wak	.	.
8E- 8AA-/	8e- 8c/	.	4e-/	zba-	.	.
8r	8r	.	.	.	.	.
[4E- [4AA-/	(>4a- [4c/	.	4a-/	-da	.	.
=23	=23	=23	=23	=23	=23	=23
*	*^	*	*	*	*	*
8E-] 8AA-/]	8cc 8c/])	2ryy	.	8cc\	swe-	.	.
8r	8r	.	.	8g/	-go	.	.
8E- 8AA-/	8e- 8c/	.	.	8b-/	du-	.	.
8r	8r	.	.	8a-/	-cha,	.	.
(4A- 4E- 4AA-\	(<8e-/L	4c\	.	8e-/	bra-	.	.
*Xped	*	*	*	*	*	*	*
.	8a-/J)	.	.	8f/	-ci	.	.
*	*v	*v	*	*	*	*	*
=24	=24	=24	=24	=24	=24	=24
(<4B- 4E-'\)	(4g 4d- 4G'/	.	(4g/	du-	.	.
4B- 4F 4BB-'\	4f 4d- 4A-'/	.	4f/)	.	.	.
8B- 8E-'\)	8e- 8d- 8G'/)	.	8e-/	-cha,	.	.
8r	8r	.	8r	.	.	.
!!LO:LB:g=original
=25	=25	=25	=25	=25	=25	=25
4r	8.e-/L	.	8.e-/	w ten-	.	.
.	(16a-/Jk	.	16a-/	-czas	.	.
8E- 8AA-/	8c 8A-/)	.	4c/	tyl-	.	.
8r	8r	.	.	.	.	.
[4E- [4AA-/	4d- [4B-/	.	4d-/	-ko	.	.
=26	=26	=26	=26	=26	=26	=26
.	16qqe-/LL	.	.	.	.	.
.	16qqf/JJ	.	.	.	.	.
8E-] 8AA-/]	8.e-L 8.B-/]	.	8.e-/	lud	.	.
8r	.	.	.	.	.	.
.	16dn/Jk	.	16dn/	go	.	.
8E-/ 8C/	8e- 8A-/	<	4e-/	słu-	.	.
8r	8r	.	.	.	.	.
8E- 8AA-/	8a- 8e- 8c/	.	4a-/	-cha,	.	.
8r	8r	[[	.	.	.	.
=27	=27	=27	=27	=27	=27	=27
*^	*^	*	*	*	*	*
!	!	!	!	!	!	!	!	!LO:DY:a
4.E-/ 4.EE-/	2ryy	(<8.ccL 8.e-/	4.c^\	f	8.cc^\	w pa-	.	f
!	!	!LO:TX:i:b:t=molto rallent.	!	!	!LO:TX:i:a:t=molto rallent.	!	!	!
.	.	16a-/Jk	.	.	16a-/	-mięć	.	.
.	.	8e-/)J	.	.	8e-/	je-	.	.
8r	.	8r	8ryy	.	8e-/	-go	.	.
(8.BB-/L	4EE-\	(8.d-/L	4G\	.	8.f 8.d-/	pie-	.	.
16D-/Jk	.	16B-/Jk	.	.	16g 16B-/	-śni	.	.
*	*	*v	*v	*	*	*	*	*
=28	=28	=28	=28	=28	=28	=28	=28
!	!	!LO:TX:B:a:t=a tempo.	!	!	!	!	!
4C/)	4AA-\	4A-/)	.	4a- 4A-/	skła-	.	.
(<4AA-\ 4DD-'\	2ryy	(4A-< 4F< 4D-<'/	.	4a- 4A-/	-da.	.	.
4AA-\ 4AAA-'\	.	4A-< 4E-< 4C<'/	.	4r	.	.	.
*v	*v	*	*	*	*	*	*
=29	=29	=29	=29	=29	=29	=29
*	*^	*	*	*	*	*
4AA-\ 4DD-'\	8.A-<'/L	4F< 4D-<\	.	2.r	.	.	.
.	16A-</Jk	.	.	.	.	.	.
4AA-\ 4AAA-'\	4A-< 4E-< 4C<'/	2ryy	.	.	.	.	.
4AA-\ 4DD-'\)	4A-< 4F< 4D-<'/)	.	.	.	.	.	.
*	*v	*v	*	*	*	*	*
=30	=30	=30	=30	=30	=30	=30
2.AA- 2.EE- 2.AAA-;<\	2.A-< 2.E-< 2.C<;/	.	2.r;	.	.	.
==	==	==	==	==	==	==
*-	*-	*-	*-	*-	*-	*-
!!!system-decoration: (p1){(p2)}
!!!ENC: Andrzej Gręziak
!!!END: 2022-08-19
!!!ENC: Kamil Watkowski
!!!END: 2022-09-24
!!!RDF**kern: > = above
!!!RDF**kern: < = below
!!!YEC: Copyright 2022 Narodowy Instytut Fryderyka Chopina (https://polishscores.org)
!!!YEM: License CC-BY-4.0 (https://creativecommons.org/licenses/by/4.0)
